icons/align-top.svg

<svg xmlns="http://www.w3.org/2000/svg" viewBox="0 0 24 24" fill="currentColor">
  <path d="M4 3.25c-.41421 0-.75.33579-.75.75s.33579.75.75.75h16c.4142 0 .75-.33579.75-.75s-.3358-.75-.75-.75H4Zm2 4.5c-.68579 0-1.25.56421-1.25 1.25v9c0 .7108.4888 1.25 1.25 1.25h2c.68579 0 1.25-.5642 1.25-1.25V9c0-.68579-.56421-1.25-1.25-1.25H6ZM3.25 9c0-1.51421 1.23579-2.75 2.75-2.75h2c1.51421 0 2.75 1.23579 2.75 2.75v9c0 1.5142-1.23579 2.75-2.75 2.75H6c-1.6388 0-2.75-1.2608-2.75-2.75V9ZM16 7.75c-.6858 0-1.25.56421-1.25 1.25v5c0 .7108.4888 1.25 1.25 1.25h2c.6858 0 1.25-.5642 1.25-1.25V9c0-.68579-.5642-1.25-1.25-1.25h-2ZM13.25 9c0-1.51421 1.2358-2.75 2.75-2.75h2c1.5142 0 2.75 1.23579 2.75 2.75v5c0 1.5142-1.2358 2.75-2.75 2.75h-2c-1.6388 0-2.75-1.2608-2.75-2.75V9Z"/>
</svg>

<svg width="24" height="24" viewBox="0 0 24 24" fill="none" xmlns="http://www.w3.org/2000/svg">
<path fill-rule="evenodd" clip-rule="evenodd" d="M4 3.25C3.58579 3.25 3.25 3.58579 3.25 4C3.25 4.41421 3.58579 4.75 4 4.75H20C20.4142 4.75 20.75 4.41421 20.75 4C20.75 3.58579 20.4142 3.25 20 3.25H4ZM6 7.75C5.31421 7.75 4.75 8.31421 4.75 9V18C4.75 18.7108 5.2388 19.25 6 19.25H8C8.68579 19.25 9.25 18.6858 9.25 18V9C9.25 8.31421 8.68579 7.75 8 7.75H6ZM3.25 9C3.25 7.48579 4.48579 6.25 6 6.25H8C9.51421 6.25 10.75 7.48579 10.75 9V18C10.75 19.5142 9.51421 20.75 8 20.75H6C4.3612 20.75 3.25 19.4892 3.25 18V9ZM16 7.75C15.3142 7.75 14.75 8.31421 14.75 9V14C14.75 14.7108 15.2388 15.25 16 15.25H18C18.6858 15.25 19.25 14.6858 19.25 14V9C19.25 8.31421 18.6858 7.75 18 7.75H16ZM13.25 9C13.25 7.48579 14.4858 6.25 16 6.25H18C19.5142 6.25 20.75 7.48579 20.75 9V14C20.75 15.5142 19.5142 16.75 18 16.75H16C14.3612 16.75 13.25 15.4892 13.25 14V9Z" fill="black"/>
</svg>
